X:23
T:Kinclaven Brig
C:Joe Buchanan's Scottish Tome - Page 152.0
I:152 0
Z:Carl Allison
R:Barndance
L:1/8
M:4/4
K:G
((3DEF) | G2 B2 D2 B2 | G2 B2 "G"D4 | "G"B2 > A2 GABd | "Am"c2 E2 E4 |
"D7"F2 A2 E2 G2 | "D7"F2 A2 d2 > e2 | "D7"f2 e2 ABce | "G"d2 B2 B2 ((3DEF) |
G2 B2 D2 B2 | "G"G2 B2 D4 | "G"B2 > G2 GABd | "Am"c2 E2 E4 |
F2 A2 D2 A2 | "D7"F2 A2 f4 | "D7"e2 > c2 DFBA | "G"G2 D2 G2 Bc |
"G"d2 B2 g2 B2 | "G"f2 e2 d4 | "D7"d2 > B2 GBdg | "D7"f2 e2 e2 AB |
"D7"c2 A2 f2 A2 | "D7"e2 d2 F4 | "D7"f2 > e2 ABce | "G"d2 B2 B2 Bc |
"G"d2 B2 g2 B2 | "G"f2 e2 d4 | "G"DGBd gfag | "C"f2 e2 e4 |
"C"ageg "D7"f2 f2 | "D7"fecA "Am"E2 E2 | "D7"FGAB cdef | "G"g2 G2 G4 |]

